source/img/icon-phone.svg

<svg width="17" height="17" viewBox="0 0 17 17" fill="none" xmlns="http://www.w3.org/2000/svg">
<path opacity="0.3" d="M3.43196 11.3005C5.10872 13.3048 7.12716 14.8829 9.43093 15.9996C10.3081 16.4153 11.4811 16.9084 12.788 16.993C12.869 16.9965 12.9465 17 13.0275 17C13.9046 17 14.6091 16.6971 15.1833 16.0736C15.1868 16.07 15.1939 16.063 15.1974 16.0559C15.4017 15.8094 15.6342 15.5874 15.8773 15.3514C16.0428 15.1929 16.2119 15.0274 16.3739 14.8583C17.1243 14.0763 17.1243 13.0829 16.3669 12.3255L14.2498 10.2085C13.8905 9.83506 13.4608 9.6378 13.0099 9.6378C12.559 9.6378 12.1257 9.83506 11.7558 10.2049L10.4947 11.466C10.3785 11.3991 10.2587 11.3392 10.146 11.2828C10.0051 11.2124 9.87477 11.1455 9.75853 11.0715C8.61017 10.3423 7.56748 9.39121 6.57059 8.16888C6.06686 7.53129 5.72869 6.99586 5.49268 6.44986C5.8238 6.15044 6.13379 5.83693 6.43321 5.53046C6.53889 5.42126 6.64809 5.31206 6.75729 5.20286C7.13772 4.82242 7.34204 4.3821 7.34204 3.93473C7.34204 3.48736 7.14125 3.04704 6.75729 2.6666L5.70755 1.61687C5.58426 1.49358 5.46802 1.37381 5.34825 1.25052C5.11576 1.01098 4.8727 0.764401 4.63317 0.542478C4.27034 0.186697 3.84411 0 3.39322 0C2.94585 0 2.51609 0.186697 2.13917 0.546001L0.821728 1.86345C0.342656 2.34252 0.0714166 2.92375 0.0150552 3.59656C-0.0518739 4.43846 0.10312 5.3332 0.504695 6.41463C1.12115 8.08786 2.05111 9.64132 3.43196 11.3005ZM0.874566 3.67053C0.916837 3.20203 1.09649 2.81102 1.43466 2.47286L2.74506 1.16245C2.94937 0.965189 3.17482 0.863034 3.39322 0.863034C3.60809 0.863034 3.82649 0.965189 4.02728 1.1695C4.26329 1.3879 4.48522 1.61687 4.72475 1.85993C4.84452 1.98322 4.96781 2.10651 5.0911 2.23332L6.14083 3.28305C6.35923 3.50145 6.47196 3.72337 6.47196 3.94177C6.47196 4.16017 6.35923 4.3821 6.14083 4.6005C6.03163 4.7097 5.92243 4.82242 5.81323 4.93162C5.48563 5.26274 5.17917 5.57625 4.841 5.87567C4.83395 5.88272 4.83043 5.88624 4.82339 5.89329C4.53101 6.18566 4.57681 6.46395 4.64726 6.6753C4.65078 6.68587 4.6543 6.69291 4.65782 6.70348C4.92906 7.35516 5.30598 7.97513 5.89425 8.71488C6.95103 10.0182 8.06417 11.0292 9.29002 11.8077C9.4415 11.9063 9.60353 11.9838 9.75501 12.0613C9.89591 12.1318 10.0262 12.1987 10.1425 12.2727C10.1566 12.2797 10.1671 12.2868 10.1812 12.2938C10.2975 12.3537 10.4102 12.3819 10.5229 12.3819C10.8047 12.3819 10.9879 12.2022 11.0478 12.1424L12.3652 10.8249C12.5696 10.6206 12.7915 10.5114 13.0099 10.5114C13.2776 10.5114 13.496 10.677 13.6334 10.8249L15.7575 12.9455C16.1802 13.3682 16.1767 13.8262 15.7469 14.2735C15.599 14.432 15.444 14.5835 15.2784 14.742C15.0318 14.9816 14.7747 15.2281 14.5422 15.5064C14.1371 15.9432 13.6545 16.1475 13.031 16.1475C12.9711 16.1475 12.9077 16.144 12.8478 16.1405C11.6924 16.0665 10.618 15.6156 9.81137 15.2317C7.62032 14.1714 5.69699 12.6672 4.10126 10.758C2.78733 9.17634 1.90316 7.7039 1.31841 6.12578C0.955586 5.15707 0.818205 4.37857 0.874566 3.67053Z" fill="black"/>
</svg>

<svg width="17" height="17" fill="none" xmlns="http://www.w3.org/2000/svg"><path opacity=".3" d="M3.432 11.3A18.036 18.036 0 0 0 9.431 16c.877.415 2.05.908 3.357.993.081.004.159.007.24.007.877 0 1.581-.303 2.155-.926a.094.094 0 0 0 .014-.018c.205-.247.437-.469.68-.705.166-.158.335-.324.497-.493.75-.782.75-1.775-.007-2.533L14.25 10.21c-.36-.374-.79-.571-1.24-.571-.451 0-.884.197-1.254.567l-1.261 1.261a6.2 6.2 0 0 0-.349-.183 4.336 4.336 0 0 1-.387-.211c-1.149-.73-2.192-1.68-3.188-2.903-.504-.638-.842-1.173-1.078-1.72.33-.299.64-.612.94-.919.106-.109.215-.218.324-.327.38-.38.585-.82.585-1.268 0-.448-.2-.888-.585-1.268l-1.05-1.05c-.123-.123-.239-.243-.359-.366-.232-.24-.475-.487-.715-.709C4.27.187 3.844 0 3.393 0c-.447 0-.877.187-1.254.546L.822 1.863c-.48.48-.75 1.06-.807 1.734-.067.841.088 1.736.49 2.818C1.12 8.088 2.05 9.64 3.432 11.3zM.875 3.67c.042-.468.221-.859.56-1.197l1.31-1.31c.204-.198.43-.3.648-.3.215 0 .433.102.634.306.236.219.458.448.698.69l.366.374 1.05 1.05c.218.218.331.44.331.659 0 .218-.113.44-.331.659-.11.109-.219.221-.328.33-.327.332-.634.645-.972.945l-.018.017c-.292.293-.246.57-.176.782l.01.028c.272.652.649 1.272 1.237 2.012 1.057 1.303 2.17 2.314 3.396 3.093.152.098.314.176.465.253.14.07.271.138.387.212.015.007.025.014.04.02.115.06.228.089.34.089.283 0 .466-.18.526-.24l1.317-1.317c.205-.204.426-.314.645-.314.268 0 .486.166.623.314l2.125 2.12c.422.423.419.881-.011 1.329-.148.158-.303.31-.469.468-.246.24-.503.486-.736.764-.405.437-.887.642-1.511.642a2.8 2.8 0 0 1-.183-.008c-1.156-.073-2.23-.524-3.037-.908a17.134 17.134 0 0 1-5.71-4.474C2.787 9.176 1.903 7.704 1.318 6.126.956 5.157.818 4.379.875 3.67z"/></svg>
